src/components/atoms/Icon/svgs/video.svg

<svg width="24" height="24" viewBox="0 0 24 24" fill="none" xmlns="http://www.w3.org/2000/svg">
    <path d="M23 7L16 12L23 17V7Z" stroke="currentColor" stroke-width="2" stroke-linecap="round"
        stroke-linejoin="round" />
    <path
        d="M14 5H3C1.89543 5 1 5.89543 1 7V17C1 18.1046 1.89543 19 3 19H14C15.1046 19 16 18.1046 16 17V7C16 5.89543 15.1046 5 14 5Z"
        stroke="currentColor" stroke-width="2" stroke-linecap="round" stroke-linejoin="round" />
</svg>

<svg viewBox="0 0 24 24" fill="none" xmlns="http://www.w3.org/2000/svg">
    <path d="M23 7l-7 5 7 5V7z" stroke="currentColor" stroke-width="2" stroke-linecap="round" stroke-linejoin="round"/>
    <path d="M14 5H3a2 2 0 00-2 2v10a2 2 0 002 2h11a2 2 0 002-2V7a2 2 0 00-2-2z" stroke="currentColor" stroke-width="2" stroke-linecap="round" stroke-linejoin="round"/>
</svg>
